/* XPM */
static char * darkplaces_xpm[] = {
"48 48 256 2",
"  	c None",
". 	c #000100",
"+ 	c #030006",
"@ 	c #080100",
"# 	c #000407",
"$ 	c #050804",
"% 	c #0E0806",
"& 	c #170700",
"* 	c #120900",
"= 	c #0C0B00",
"- 	c #1D0804",
"; 	c #3C0100",
"> 	c #400002",
", 	c #170C0C",
"' 	c #0D100D",
") 	c #1A0D06",
"! 	c #200C00",
"~ 	c #490003",
"{ 	c #140F0D",
"] 	c #1D0E00",
"^ 	c #4D0000",
"/ 	c #171008",
"( 	c #121208",
"_ 	c #191101",
": 	c #280E07",
"< 	c #231208",
"[ 	c #1D1600",
"} 	c #211409",
"| 	c #1B1610",
"1 	c #231504",
"2 	c #271404",
"3 	c #191716",
"4 	c #1E170B",
"5 	c #2B1408",
"6 	c #760000",
"7 	c #371408",
"8 	c #2A180B",
"9 	c #311707",
"0 	c #311800",
"a 	c #261A11",
"b 	c #2D1A07",
"c 	c #281B0D",
"d 	c #251C0C",
"e 	c #231C13",
"f 	c #301B02",
"g 	c #201F0E",
"h 	c #341C0E",
"i 	c #2F2006",
"j 	c #2F200E",
"k 	c #381E0A",
"l 	c #A00001",
"m 	c #331F10",
"n 	c #3C1D0D",
"o 	c #2B220E",
"p 	c #272314",
"q 	c #451B0B",
"r 	c #35200A",
"s 	c #2E2115",
"t 	c #2C211E",
"u 	c #2B2316",
"v 	c #441F0D",
"w 	c #41210A",
"x 	c #382601",
"y 	c #372609",
"z 	c #5C1C00",
"A 	c #362610",
"B 	c #3C2511",
"C 	c #3E250C",
"D 	c #372716",
"E 	c #2F291B",
"F 	c #322914",
"G 	c #3B2618",
"H 	c #48260A",
"I 	c #4B2512",
"J 	c #262D33",
"K 	c #442A0B",
"L 	c #402A18",
"M 	c #452A12",
"N 	c #59250C",
"O 	c #4A2913",
"P 	c #273323",
"Q 	c #382F1B",
"R 	c #572714",
"S 	c #3C2E20",
"T 	c #3F2E18",
"U 	c #373021",
"V 	c #373318",
"W 	c #3A3128",
"X 	c #502D0F",
"Y 	c #3E3219",
"Z 	c #43330E",
"` 	c #3E3416",
" .	c #582E10",
"..	c #49321F",
"+.	c #393534",
"@.	c #463418",
"#.	c #4D3219",
"$.	c #46341F",
"%.	c #4E3313",
"&.	c #403622",
"*.	c #4F3509",
"=.	c #642F17",
"-.	c #6A2E18",
";.	c #683212",
">.	c #63331A",
",.	c #5D3610",
"'.	c #2B4230",
").	c #5E3618",
"!.	c #5B3721",
"~.	c #453D29",
"{.	c #3D3F2D",
"].	c #523B18",
"^.	c #503B20",
"/.	c #4B3E24",
"(.	c #4F3D28",
"_.	c #5A3D0B",
":.	c #5A3C23",
"<.	c #5D4106",
"[.	c #79371B",
"}.	c #603F1C",
"|.	c #56421F",
"1.	c #653F1D",
"2.	c #5D421E",
"3.	c #4E4530",
"4.	c #51452A",
"5.	c #803A17",
"6.	c #604418",
"7.	c #6D4424",
"8.	c #584A2B",
"9.	c #5E4A25",
"0.	c #584B33",
"a.	c #335265",
"b.	c #7D4322",
"c.	c #604B2E",
"d.	c #514F35",
"e.	c #6B4B20",
"f.	c #6A4B28",
"g.	c #76491C",
"h.	c #634C37",
"i.	c #754922",
"j.	c #6E4E0A",
"k.	c #97411D",
"l.	c #5F5031",
"m.	c #8F441F",
"n.	c #685022",
"o.	c #844822",
"p.	c #68512C",
"q.	c #63532D",
"r.	c #9F481E",
"s.	c #72542E",
"t.	c #665739",
"u.	c #7A5424",
"v.	c #A94720",
"w.	c #845329",
"x.	c #6C5A2F",
"y.	c #6A5B35",
"z.	c #6F593C",
"A.	c #51605A",
"B.	c #845A06",
"C.	c #725B38",
"D.	c #985228",
"E.	c #755C34",
"F.	c #8D5921",
"G.	c #6F5F41",
"H.	c #766231",
"I.	c #AD5324",
"J.	c #B65120",
"K.	c #7C6233",
"L.	c #A65823",
"M.	c #7D6540",
"N.	c #926606",
"O.	c #796840",
"P.	c #756951",
"Q.	c #8D6534",
"R.	c #89663B",
"S.	c #936532",
"T.	c #876933",
"U.	c #7D6A4B",
"V.	c #986A00",
"W.	c #846B3C",
"X.	c #736E5C",
"Y.	c #866D46",
"Z.	c #827146",
"`.	c #8D733C",
" +	c #7D755D",
".+	c #A37304",
"++	c #93714B",
"@+	c #8F7645",
"#+	c #A2733B",
"$+	c #92784E",
"%+	c #9E7838",
"&+	c #8D7C52",
"*+	c #9E7A44",
"=+	c #9E7D34",
"-+	c #997D45",
";+	c #977D4C",
">+	c #8E8360",
",+	c #B78208",
"'+	c #A0855D",
")+	c #A38555",
"!+	c #A98450",
"~+	c #AC8545",
"{+	c #B58548",
"]+	c #C38805",
"^+	c #A78A46",
"/+	c #A48A50",
"(+	c #A38B59",
"_+	c #9D8D62",
":+	c #AA8E43",
"<+	c #CB8D00",
"[+	c #96917D",
"}+	c #BC8E56",
"|+	c #C19330",
"1+	c #BC934C",
"2+	c #B29752",
"3+	c #B09867",
"4+	c #DA9700",
"5+	c #B39A5E",
"6+	c #C09F38",
"7+	c #C39C4D",
"8+	c #D49B30",
"9+	c #B2A077",
"0+	c #EA9D00",
"a+	c #C1A256",
"b+	c #C79F63",
"c+	c #E8A101",
"d+	c #CCA159",
"e+	c #BFA65F",
"f+	c #EBA300",
"g+	c #B4A889",
"h+	c #BEA873",
"i+	c #F3A400",
"j+	c #C3A86B",
"k+	c #CFAB57",
"l+	c #D1B35C",
"m+	c #FCB100",
"n+	c #FAB01B",
"o+	c #CEB574",
"p+	c #F3B234",
"q+	c #D5B76A",
"r+	c #F0B837",
"s+	c #C9BE9E",
"t+	c #D3BE81",
"u+	c #D1BE8B",
"v+	c #FBBD35",
"w+	c #D9C26A",
"x+	c #FFC500",
"y+	c #DEC67E",
"z+	c #DBC994",
"A+	c #FCCA3E",
"B+	c #DED2A5",
"C+	c #DCD2B3",
"D+	c #E4D39E",
"E+	c #EDE1B3",
"F+	c #F0E1AC",
"G+	c #F5EDCD",
"l l l l l l l l l l l l l l l l l l l l l l l l l l l l l l l l l l l l l l l l l l l l l l l l ",
"l 6 > ; ; ; ; ; ; ; ; ; ; ; ; ; ; ; ; ; ; ; ; ; ; ; ; ; ; ; ; ; ; ; ; ; ; ; ; ; ; ; ; ; ; > 6 l ",
"l > ]+0+0+0+0+0+0+0+0+0+0+0+0+0+0+0+0+0+0+0+0+0+0+0+0+0+0+0+0+0+0+0+0+0+0+0+0+c+0+0+0+0+0+]+; l ",
"l ; 0+U u { ~.U X.X.X. +| p X.X. +~.t.$ $ $ % ' % $ $ $ $ $ $ $ + + + ) { + m L G D D S t c+; l ",
"l ; c+3.^.T D ^.O._+>+$+& M 8.&+&+H.t.& ] m 9 1 , & & & & & , Z N.V.N.N..+<.m s.7.7.1.}.$.0+; l ",
"l ; 0+~.@.B c j q.(+8.e.s.D C A 9 C.( * b B b 2 * % % & ) - b <+m+n+m+n+4+L , 1.7.7.7.f...4+> l ",
"l ; i+m @.m j D j b x.8 5 < - < 9 >.* / L k 8 k I O k ! ) : } i g ) w O  .g.M m i.7.7.7...c+; l ",
"l ; c+e B j D j j ] , ! * % ! : v n -.8.T B 8 r C w B M C 9 b ]+m+<+<+<+<+<+<+<+<+<+,+L G 0+> l ",
"l ; c++ j i j j d } 2 ) & * * ] 9 n P ).[.T a m G M M O K H w j B.N.N.B.,+i+N.N.N.N.M #.t c+; l ",
"l > f+- j G j c c ! < ) ) ) < : 5 B n -.m.F j c B M O X  .H X 9 5 m C w y _.r s e L r a / 0+> l ",
"l > c+- < j j c } } / ) < < 2 ] v =.=.[.f.f.s s G #.%.%.). .,._.m+x+x+x+x+x+x+x+x+x+i+%.{ c+; l ",
"l ; c+- n * / a ] , @ < 9 2 < I B =.m.t.b.:.j c A M ).1.,.,.,.V ` ` y y y A A C A o B.*.{ 0+> l ",
"l ; 0+- 9 7 - + @ * n {.A 8 5.L.[.m.y.w.O.p.|.s 4 c C X %.,.,.d.d.d.y 8 5 k j.j.j.j.4+j.# c+; l ",
"l > c+3 h 7 ) ] k U {.!.N -.>.R m.D.w.E.w.u.0.c 4 j m f k  ._.` d.d.Z 5 c ,+i+f+f+n+]+Z % 0+> l ",
"l > 0+3 s 5 5 L '.:.[.[.[.-.R [.k.v.C.D.O.E.>.Q 4 i A r C  .,.q.d.d.|.& _ 1 1 1 [ _ M b.3 c+; l ",
"l ; 0+J W R W P -.-.[.[.m.m.k.k.r.v.I.O.K.I.5.G 4 m k k 0 C 6.e.%.|.M `.@ & & % & % m v.{.0+> l ",
"l > 0+a.+.= 8 G !.!.n M.o+j+b+#+D.v.v.Q.J.I.m.D _ r k C 0 w ,.F.|+6+:+e+2.@ & % ) % 5 k.: c+; l ",
"l > 0+a.A.S m 8 5 < < -+u+z+D+u+{+r.r.k.k.I.m.O a m r 4 } b n e.Q.=+2+a+o+2+% & * @ 8 }.-.c+> l ",
"l ; 0+t z.'+3+3+3+$+:.K.j+z+z+z+5+^.7.w.i.o.b.T.1 b / 4 } m k X ).1.u.*+Q.z a+} & % h :.R 4+; l ",
"l > f+W 0.(+)+(+h+j+9+M.;+b+e+j+*+/+&+Z.M. +^.M } / ) 4 a 1 c 8 9 w X i.i.N ;.e+} @ v }.!.c+> l ",
"l > 0+W 0.g+5+j+t+t+u+z+B+B+D+E+B+D+z+B+_+(+C+g+o % * = _ ) 4 4 ] 5 b C H >.w.)+M.* w }.R c+; l ",
"l ; i+W 0.t.z+5+3+j+t+u+t+z+D+D+D+D+E+s+g+s+5+C+G+g+#.O q v q v q 9 ! 2 5 k H 1.)+] R b.>.4+> l ",
"l ; c+W 0.~.9+u+z+z+D+F+F+F+E+G+E+E+G+s+g+C+G+C+s+C+[+P.3.5 2 2 2 7 I f * < 9 w R.j n -.R c+; l ",
"l ; 0+3 ~.P.G.~.3.c.c.f.*+~+*+7+b+d+q+3+u+u+D+F+E+B+ +_+>+h+1 } } 2 9 q H * & ] #.^.r m < 0+> l ",
"l ; 0+W y.G.(.(.p.s.R.#+1+7+k+l+k+k+k+/+2+l+w+w+y+w+Z.:+5+H.Y | 4 } s h q ).] ) < h $.Q.3 0+; l ",
"l ; 0+E 3./.4.p.M.++*+{+1+d+k+k+l+:+/+2+o+y+y+y+o+u+Z.e+e+5+/./ / } 1 a m n n 9 O 7.S.R.f.c+> l ",
"l ; c+~.Q /.h.E.W.@+*+}+1+7+q+q+5+@+_+9+h+}+'+++'+O.d.z+5+/+q.{ ' / ] / } } } C %.6.T.`.x.c+; l ",
"l ; c+3 U ~.q.y.K.++@+/+y+u+++h.h.++9+)+++z.z.U.>+U 3.$+Z.3+Z.$ | | ' { $ $ ) : b 9 C Z Y 4+> l ",
"l > c+3 Q ~.l.G.W.-+/+j+>+U $.h.U.$+Y.U.h.z.U.S z.' G.z.z.'+3+@ $ / * % @ @ * * * ] ! 5 & c+; l ",
"l ; c+' Q /.0.x.-+;+h+G.e s U.$.$+C.~.$.| c.z.z.{ (.z.P.0.3+>+W / % $ + + @ @ + @ @ @ @ @ 0+> l ",
"l ; i+' E /.8.^+y.2+G.| { z.| $+c.z.u U t C.$+Y.)+'+G.Y.3., t.G.' % @ @ @ @ @ ! - - ! @ # c+; l ",
"l > c+' E V |.`.`./+e $ D ..0.$+0.0.&.^.`.)+)+!+/+;+$+z.a | t.&+| $ . @ @ @ - - ! ! - - . 0+> l ",
"l ; 0+3 E Q 8.q.^+~./ + ..4 R.h.0.4.0.O.++)+M.z.z.)+)+Y.u ~.0.O.U @ . @ . - ! - ! : ! - . c+; l ",
"l > c+' E F x.s 1+' . 4 d a C.4.$.c.z.M.!+z.s , e U 3+O.O.$+3.t.@.@ @ @ & & @ @ ! ! - , . 0+> l ",
"l ; c+' g Y Y Q x.| # 4 4 d W.4 e @ (.E.*+$.{ 3 | e 0.$+y.~.t.0.V @ @ @ & @ @ @ ! - & @ [ i+; l ",
"l ; f+' p p Y Q 8.( $ / / e E.$.F 4 p.l.8.&.+ / 3 3 u -+t.3.p A d @ . @ @ & @ @ - & @ [ m+= ~ l ",
"l ; c+' E g F E 9.% # ( ( d 9.9.| &.^.C.E.@.+ / | | 3.-+c.E p d * . @ @ @ _ & # @ @ _ <+= @ ^ l ",
"l ; f+' g E Y |.x.$ . / / 4 8.$.c.9./.p.W.p d * { | (.W.W.Y D Q $ . . @ * , @ @ @ 1 <+x @ . ^ l ",
"l ; c+' g p F V 9./ # * / } /.Y /.&.Y $.E.9.4 d a p E.W.q.l.$.4 * @ @ * * * @ @ [ i+* . . # ^ l ",
"l > f+' $ = p F Y o . @ ] / C ].T A $.A ^.9.@.E./.T.T.@.f.^.V ) % % * @ * @ @ [ 4+b ( / $ . ^ l ",
"l ; f++ g ( ( p p o $ # * _ c |.A A # _ @.9.|.2.e.T.o @.* ].T b $ @ * @ @ . [ 4+<.8+p+p+|++ ^ l ",
"l ; i+# ( V 4 _ 4 4 _ * . ) } M ].$ d D @.|.%.6.n.f.} i e ].%.%.@ @ + . . [ i+= # / @ j A+. ^ l ",
"l ; i++ ' $ p ( 4 4 j / * @ _ 8 %.].%.%.|.y j & b 2.2./ %.}.F.1.@ . . . _ <+* . . 8+v+p+v+# ^ l ",
"l ; c+# ( ( ' ( ( / = b 4 = @ % 8 C y m %.c / / A y C }.%.T.*+u.$ . . [ <+x # . i r+%.%.) . ^ l ",
"l ; 0++ # $ # + + $ # + + @ @ @ # + / c a a + / } c o = |.x.q.q.+ . [ f+* . . # j r+r+r+A+# ^ l ",
"l > <+0+c+i+f+f+f+0+c+f+i+f+c+f+f+f+c+c+i+f+f+c+c+c+0+0+c+c+c+0+f+f+i+* . . . . $ Z Z Z Z . ^ l ",
"l 6 ; ; ; > > ; ; ; > ; > ; > > > > > ; > > > > > ; ; ; > ; ; > > ; ; ^ ^ ^ ^ ^ ^ ~ ~ ^ ~ ^ 6 l ",
"l l l l l l l l l l l l l l l l l l l l l l l l l l l l l l l l l l l l l l l l l l l l l l l l "};
